images/54686787.svg

<?xml version="1.0" encoding="UTF-8"?>
<svg xmlns="http://www.w3.org/2000/svg" xmlns:xlink="http://www.w3.org/1999/xlink" width="300pt" height="300pt" viewBox="0 0 300 300" version="1.1">
<defs>
<g>
<symbol overflow="visible" id="glyph0-0">
<path style="stroke:none;" d="M 0.59375 2.125 L 0.59375 -8.46875 L 6.59375 -8.46875 L 6.59375 2.125 Z M 1.265625 1.453125 L 5.9375 1.453125 L 5.9375 -7.78125 L 1.265625 -7.78125 Z M 1.265625 1.453125 "/>
</symbol>
<symbol overflow="visible" id="glyph0-1">
<path style="stroke:none;" d="M 4.734375 -7.953125 C 3.867188 -7.953125 3.179688 -7.628906 2.671875 -6.984375 C 2.171875 -6.347656 1.921875 -5.472656 1.921875 -4.359375 C 1.921875 -3.265625 2.171875 -2.394531 2.671875 -1.75 C 3.179688 -1.113281 3.867188 -0.796875 4.734375 -0.796875 C 5.585938 -0.796875 6.265625 -1.113281 6.765625 -1.75 C 7.273438 -2.394531 7.53125 -3.265625 7.53125 -4.359375 C 7.53125 -5.472656 7.273438 -6.347656 6.765625 -6.984375 C 6.265625 -7.628906 5.585938 -7.953125 4.734375 -7.953125 Z M 4.734375 -8.90625 C 5.953125 -8.90625 6.925781 -8.492188 7.65625 -7.671875 C 8.394531 -6.847656 8.765625 -5.742188 8.765625 -4.359375 C 8.765625 -2.984375 8.394531 -1.882812 7.65625 -1.0625 C 6.925781 -0.238281 5.953125 0.171875 4.734375 0.171875 C 3.503906 0.171875 2.519531 -0.238281 1.78125 -1.0625 C 1.039062 -1.882812 0.671875 -2.984375 0.671875 -4.359375 C 0.671875 -5.742188 1.039062 -6.847656 1.78125 -7.671875 C 2.519531 -8.492188 3.503906 -8.90625 4.734375 -8.90625 Z M 4.734375 -8.90625 "/>
</symbol>
<symbol overflow="visible" id="glyph0-2">
<path style="stroke:none;" d="M 1.171875 -8.75 L 2.765625 -8.75 L 6.65625 -1.4375 L 6.65625 -8.75 L 7.796875 -8.75 L 7.796875 0 L 6.203125 0 L 2.328125 -7.3125 L 2.328125 0 L 1.171875 0 Z M 1.171875 -8.75 "/>
</symbol>
<symbol overflow="visible" id="glyph0-3">
<path style="stroke:none;" d="M 1.171875 -8.75 L 2.359375 -8.75 L 2.359375 -5.15625 L 6.65625 -5.15625 L 6.65625 -8.75 L 7.84375 -8.75 L 7.84375 0 L 6.65625 0 L 6.65625 -4.171875 L 2.359375 -4.171875 L 2.359375 0 L 1.171875 0 Z M 1.171875 -8.75 "/>
</symbol>
</g>
</defs>
<g id="surface32193">
<rect x="0" y="0" width="300" height="300" style="fill:rgb(100%,100%,100%);fill-opacity:1;stroke:none;"/>
<path style="fill:none;stroke-width:1.2;stroke-linecap:butt;stroke-linejoin:miter;stroke:rgb(0%,0%,0%);stroke-opacity:1;stroke-miterlimit:10;" d="M 35.25 161.328125 L 59 177.960938 "/>
<path style="fill:none;stroke-width:1.2;stroke-linecap:butt;stroke-linejoin:miter;stroke:rgb(0%,0%,0%);stroke-opacity:1;stroke-miterlimit:10;" d="M 55.601562 177.664062 L 54.335938 192.105469 "/>
<path style="fill:none;stroke-width:1.2;stroke-linecap:butt;stroke-linejoin:miter;stroke:rgb(100%,0%,0%);stroke-opacity:1;stroke-miterlimit:10;" d="M 54.335938 192.105469 L 53.070312 206.546875 "/>
<path style="fill:none;stroke-width:1.2;stroke-linecap:butt;stroke-linejoin:miter;stroke:rgb(0%,0%,0%);stroke-opacity:1;stroke-miterlimit:10;" d="M 62.398438 178.257812 L 61.132812 192.699219 "/>
<path style="fill:none;stroke-width:1.2;stroke-linecap:butt;stroke-linejoin:miter;stroke:rgb(100%,0%,0%);stroke-opacity:1;stroke-miterlimit:10;" d="M 61.132812 192.699219 L 59.867188 207.140625 "/>
<path style="fill:none;stroke-width:1.2;stroke-linecap:butt;stroke-linejoin:miter;stroke:rgb(0%,0%,0%);stroke-opacity:1;stroke-miterlimit:10;" d="M 59 177.960938 L 85.277344 165.710938 "/>
<path style=" stroke:none;fill-rule:nonzero;fill:rgb(100%,100%,100%);fill-opacity:1;" d="M 51.46875 199.84375 L 61.46875 199.84375 L 61.46875 213.84375 L 51.46875 213.84375 Z M 51.46875 199.84375 "/>
<g style="fill:rgb(100%,0%,0%);fill-opacity:1;">
  <use xlink:href="#glyph0-1" x="51.46875" y="210.982422"/>
</g>
<path style="fill:none;stroke-width:1.2;stroke-linecap:butt;stroke-linejoin:miter;stroke:rgb(0%,0%,0%);stroke-opacity:1;stroke-miterlimit:10;" d="M 85.277344 165.710938 L 110.636719 179.769531 "/>
<path style="fill:none;stroke-width:1.2;stroke-linecap:butt;stroke-linejoin:miter;stroke:rgb(0%,0%,0%);stroke-opacity:1;stroke-miterlimit:10;" d="M 91.121094 161.148438 L 111.410156 172.394531 "/>
<path style="fill:none;stroke-width:1.2;stroke-linecap:butt;stroke-linejoin:miter;stroke:rgb(0%,0%,0%);stroke-opacity:1;stroke-miterlimit:10;" d="M 90.8125 137.25 L 85.277344 165.710938 "/>
<path style=" stroke:none;fill-rule:nonzero;fill:rgb(0%,0%,0%);fill-opacity:1;" d="M 131.84375 159.996094 L 107.148438 176.027344 L 114.125 183.511719 Z M 131.84375 159.996094 "/>
<path style="fill:none;stroke-width:1.2;stroke-linecap:butt;stroke-linejoin:miter;stroke:rgb(0%,0%,0%);stroke-opacity:1;stroke-miterlimit:10;" d="M 110.636719 179.769531 L 112.402344 194.160156 "/>
<path style="fill:none;stroke-width:1.2;stroke-linecap:butt;stroke-linejoin:miter;stroke:rgb(100%,0%,0%);stroke-opacity:1;stroke-miterlimit:10;" d="M 112.402344 194.160156 L 114.167969 208.546875 "/>
<path style="fill:none;stroke-width:1.2;stroke-linecap:butt;stroke-linejoin:miter;stroke:rgb(0%,0%,0%);stroke-opacity:1;stroke-miterlimit:10;" d="M 131.84375 159.996094 L 160.621094 156.464844 "/>
<path style="fill:none;stroke-width:1.2;stroke-linecap:butt;stroke-linejoin:miter;stroke:rgb(0%,0%,100%);stroke-opacity:1;stroke-miterlimit:10;" d="M 119.59375 133.71875 L 125.71875 146.855469 "/>
<path style="fill:none;stroke-width:1.2;stroke-linecap:butt;stroke-linejoin:miter;stroke:rgb(0%,0%,0%);stroke-opacity:1;stroke-miterlimit:10;" d="M 125.71875 146.855469 L 131.84375 159.996094 "/>
<path style="fill:none;stroke-width:1.2;stroke-linecap:butt;stroke-linejoin:miter;stroke:rgb(0%,0%,0%);stroke-opacity:1;stroke-miterlimit:10;" d="M 160.621094 156.464844 L 166.15625 128.003906 "/>
<path style=" stroke:none;fill-rule:nonzero;fill:rgb(0%,0%,0%);fill-opacity:1;" d="M 160.621094 156.464844 L 179.144531 179.351562 L 185.859375 171.628906 Z M 160.621094 156.464844 "/>
<path style=" stroke:none;fill-rule:nonzero;fill:rgb(0%,0%,0%);fill-opacity:1;" d="M 166.15625 128.003906 L 195.238281 123.40625 L 191.90625 113.730469 Z M 166.15625 128.003906 "/>
<path style="fill:none;stroke-width:1.2;stroke-linecap:butt;stroke-linejoin:miter;stroke:rgb(0%,0%,0%);stroke-opacity:1;stroke-miterlimit:10;" d="M 166.15625 128.003906 L 140.800781 113.945312 "/>
<path style="fill:none;stroke-width:1.2;stroke-linecap:butt;stroke-linejoin:miter;stroke:rgb(0%,0%,0%);stroke-opacity:1;stroke-miterlimit:10;" d="M 193.574219 118.566406 L 215.453125 137.589844 "/>
<path style="fill:none;stroke-width:1.2;stroke-linecap:butt;stroke-linejoin:miter;stroke:rgb(0%,0%,0%);stroke-opacity:1;stroke-miterlimit:10;" d="M 215.453125 137.589844 L 209.917969 166.054688 "/>
<path style="fill:none;stroke-width:1.2;stroke-linecap:butt;stroke-linejoin:miter;stroke:rgb(0%,0%,0%);stroke-opacity:1;stroke-miterlimit:10;" d="M 221.597656 141.742188 L 217.167969 164.507812 "/>
<path style="fill:none;stroke-width:1.2;stroke-linecap:butt;stroke-linejoin:miter;stroke:rgb(0%,0%,0%);stroke-opacity:1;stroke-miterlimit:10;" d="M 242.871094 128.15625 L 215.453125 137.589844 "/>
<path style="fill:none;stroke-width:1.2;stroke-linecap:butt;stroke-linejoin:miter;stroke:rgb(0%,0%,0%);stroke-opacity:1;stroke-miterlimit:10;" d="M 209.917969 166.054688 L 182.503906 175.488281 "/>
<path style="fill:none;stroke-width:1.2;stroke-linecap:butt;stroke-linejoin:miter;stroke:rgb(0%,0%,0%);stroke-opacity:1;stroke-miterlimit:10;" d="M 231.800781 185.078125 L 209.917969 166.054688 "/>
<path style="fill:none;stroke-width:1.2;stroke-linecap:butt;stroke-linejoin:miter;stroke:rgb(0%,0%,0%);stroke-opacity:1;stroke-miterlimit:10;" d="M 182.503906 175.488281 L 186.035156 204.269531 "/>
<path style="fill:none;stroke-width:1.2;stroke-linecap:butt;stroke-linejoin:miter;stroke:rgb(0%,0%,0%);stroke-opacity:1;stroke-miterlimit:10;" d="M 189.628906 177.539062 L 192.453125 200.558594 "/>
<path style="fill:none;stroke-width:1.2;stroke-linecap:butt;stroke-linejoin:miter;stroke:rgb(0%,0%,0%);stroke-opacity:1;stroke-miterlimit:10;" d="M 186.035156 204.269531 L 200.265625 207.035156 "/>
<path style="fill:none;stroke-width:1.2;stroke-linecap:butt;stroke-linejoin:miter;stroke:rgb(0%,0%,100%);stroke-opacity:1;stroke-miterlimit:10;" d="M 200.265625 207.035156 L 214.496094 209.804688 "/>
<path style="fill:none;stroke-width:1.2;stroke-linecap:butt;stroke-linejoin:miter;stroke:rgb(0%,0%,100%);stroke-opacity:1;stroke-miterlimit:10;" d="M 214.496094 209.804688 L 223.148438 197.441406 "/>
<path style="fill:none;stroke-width:1.2;stroke-linecap:butt;stroke-linejoin:miter;stroke:rgb(0%,0%,0%);stroke-opacity:1;stroke-miterlimit:10;" d="M 223.148438 197.441406 L 231.800781 185.078125 "/>
<path style=" stroke:none;fill-rule:nonzero;fill:rgb(100%,100%,100%);fill-opacity:1;" d="M 205.496094 202.804688 L 223.496094 202.804688 L 223.496094 216.804688 L 205.496094 216.804688 Z M 205.496094 202.804688 "/>
<g style="fill:rgb(0%,0%,100%);fill-opacity:1;">
  <use xlink:href="#glyph0-2" x="205.496094" y="213.943359"/>
  <use xlink:href="#glyph0-3" x="214.472656" y="213.943359"/>
</g>
<path style="fill:none;stroke-width:1.2;stroke-linecap:butt;stroke-linejoin:miter;stroke:rgb(0%,0%,0%);stroke-opacity:1;stroke-miterlimit:10;" d="M 231.800781 185.078125 L 259.214844 175.640625 "/>
<path style="fill:none;stroke-width:1.2;stroke-linecap:butt;stroke-linejoin:miter;stroke:rgb(0%,0%,0%);stroke-opacity:1;stroke-miterlimit:10;" d="M 232.320312 177.683594 L 254.253906 170.132812 "/>
<path style="fill:none;stroke-width:1.2;stroke-linecap:butt;stroke-linejoin:miter;stroke:rgb(0%,0%,0%);stroke-opacity:1;stroke-miterlimit:10;" d="M 259.214844 175.640625 L 264.75 147.179688 "/>
<path style="fill:none;stroke-width:1.2;stroke-linecap:butt;stroke-linejoin:miter;stroke:rgb(0%,0%,0%);stroke-opacity:1;stroke-miterlimit:10;" d="M 264.75 147.179688 L 242.871094 128.15625 "/>
<path style="fill:none;stroke-width:1.2;stroke-linecap:butt;stroke-linejoin:miter;stroke:rgb(0%,0%,0%);stroke-opacity:1;stroke-miterlimit:10;" d="M 258.085938 150.425781 L 240.582031 135.207031 "/>
<path style="fill:none;stroke-width:1.2;stroke-linecap:butt;stroke-linejoin:miter;stroke:rgb(0%,0%,0%);stroke-opacity:1;stroke-miterlimit:10;" d="M 140.800781 113.945312 L 130.195312 123.832031 "/>
<path style="fill:none;stroke-width:1.2;stroke-linecap:butt;stroke-linejoin:miter;stroke:rgb(0%,0%,100%);stroke-opacity:1;stroke-miterlimit:10;" d="M 130.195312 123.832031 L 119.59375 133.71875 "/>
<path style="fill:none;stroke-width:1.2;stroke-linecap:butt;stroke-linejoin:miter;stroke:rgb(0%,0%,0%);stroke-opacity:1;stroke-miterlimit:10;" d="M 140.800781 113.945312 L 157.433594 90.195312 "/>
<path style="fill:none;stroke-width:1.2;stroke-linecap:butt;stroke-linejoin:miter;stroke:rgb(0%,0%,0%);stroke-opacity:1;stroke-miterlimit:10;" d="M 140.800781 113.945312 L 118.917969 94.921875 "/>
<path style="fill:none;stroke-width:1.2;stroke-linecap:butt;stroke-linejoin:miter;stroke:rgb(0%,0%,100%);stroke-opacity:1;stroke-miterlimit:10;" d="M 119.59375 133.71875 L 105.203125 135.484375 "/>
<path style="fill:none;stroke-width:1.2;stroke-linecap:butt;stroke-linejoin:miter;stroke:rgb(0%,0%,0%);stroke-opacity:1;stroke-miterlimit:10;" d="M 105.203125 135.484375 L 90.8125 137.25 "/>
<path style=" stroke:none;fill-rule:nonzero;fill:rgb(100%,100%,100%);fill-opacity:1;" d="M 115.59375 126.71875 L 124.59375 126.71875 L 124.59375 140.71875 L 115.59375 140.71875 Z M 115.59375 126.71875 "/>
<g style="fill:rgb(0%,0%,100%);fill-opacity:1;">
  <use xlink:href="#glyph0-2" x="115.59375" y="137.857422"/>
</g>
<path style="fill:none;stroke-width:1.2;stroke-linecap:butt;stroke-linejoin:miter;stroke:rgb(0%,0%,0%);stroke-opacity:1;stroke-miterlimit:10;" d="M 93.308594 134.921875 L 83.421875 124.320312 "/>
<path style="fill:none;stroke-width:1.2;stroke-linecap:butt;stroke-linejoin:miter;stroke:rgb(100%,0%,0%);stroke-opacity:1;stroke-miterlimit:10;" d="M 83.421875 124.320312 L 73.535156 113.714844 "/>
<path style="fill:none;stroke-width:1.2;stroke-linecap:butt;stroke-linejoin:miter;stroke:rgb(0%,0%,0%);stroke-opacity:1;stroke-miterlimit:10;" d="M 88.320312 139.574219 L 78.433594 128.972656 "/>
<path style="fill:none;stroke-width:1.2;stroke-linecap:butt;stroke-linejoin:miter;stroke:rgb(100%,0%,0%);stroke-opacity:1;stroke-miterlimit:10;" d="M 78.433594 128.972656 L 68.546875 118.367188 "/>
<path style=" stroke:none;fill-rule:nonzero;fill:rgb(100%,100%,100%);fill-opacity:1;" d="M 61.042969 109.042969 L 71.042969 109.042969 L 71.042969 123.042969 L 61.042969 123.042969 Z M 61.042969 109.042969 "/>
<g style="fill:rgb(100%,0%,0%);fill-opacity:1;">
  <use xlink:href="#glyph0-1" x="61.042969" y="120.181641"/>
</g>
<path style=" stroke:none;fill-rule:nonzero;fill:rgb(100%,100%,100%);fill-opacity:1;" d="M 105.167969 201.546875 L 124.167969 201.546875 L 124.167969 215.546875 L 105.167969 215.546875 Z M 105.167969 201.546875 "/>
<g style="fill:rgb(100%,0%,0%);fill-opacity:1;">
  <use xlink:href="#glyph0-1" x="105.167969" y="212.685547"/>
  <use xlink:href="#glyph0-3" x="114.613281" y="212.685547"/>
</g>
</g>
</svg>

<svg xmlns="http://www.w3.org/2000/svg" xmlns:xlink="http://www.w3.org/1999/xlink" width="300pt" height="300pt" viewBox="0 0 300 300"><defs><symbol overflow="visible"><path d="M.594 2.125V-8.47h6V2.126zm.672-.672h4.671V-7.78h-4.67zm0 0"/></symbol><symbol overflow="visible" id="a"><path d="M4.734-7.953c-.867 0-1.554.324-2.062.97-.5.635-.75 1.51-.75 2.624 0 1.094.25 1.965.75 2.61.508.637 1.195.953 2.062.953.852 0 1.532-.316 2.032-.953.507-.645.765-1.516.765-2.61 0-1.113-.257-1.988-.764-2.624-.5-.645-1.18-.97-2.032-.97zm0-.953c1.22 0 2.192.414 2.922 1.234.74.824 1.11 1.93 1.11 3.313 0 1.376-.37 2.477-1.11 3.298C6.926-.24 5.953.17 4.734.17c-1.23 0-2.214-.41-2.953-1.234C1.04-1.882.673-2.984.673-4.36c0-1.382.367-2.488 1.11-3.312.738-.82 1.722-1.234 2.952-1.234zm0 0"/></symbol><symbol overflow="visible" id="b"><path d="M1.172-8.75h1.594l3.89 7.313V-8.75h1.14V0H6.204L2.328-7.313V0H1.172zm0 0"/></symbol><symbol overflow="visible" id="c"><path d="M1.172-8.75H2.36v3.594h4.296V-8.75h1.188V0H6.656v-4.172H2.36V0H1.17zm0 0"/></symbol></defs><g><path fill="#fff" d="M0 0h300v300H0z"/><path d="M35.25 161.328L59 177.96M55.602 177.664l-1.266 14.44" stroke-width="1.2" stroke="#000" stroke-miterlimit="10" fill="none"/><path d="M54.336 192.105l-1.266 14.442" stroke-width="1.2" stroke="#f00" stroke-miterlimit="10" fill="none"/><path d="M62.398 178.258l-1.265 14.44" stroke-width="1.2" stroke="#000" stroke-miterlimit="10" fill="none"/><path d="M61.133 192.7l-1.266 14.44" stroke-width="1.2" stroke="#f00" stroke-miterlimit="10" fill="none"/><path d="M59 177.96l26.277-12.25" stroke-width="1.2" stroke="#000" stroke-miterlimit="10" fill="none"/><path d="M51.47 199.844h10v14h-10zm0 0" fill="#fff"/><use xlink:href="#a" x="51.469" y="210.982" fill="#f00"/><path d="M85.277 165.71l25.36 14.06M91.12 161.148l20.29 11.247M90.813 137.25l-5.536 28.46" stroke-width="1.2" stroke="#000" stroke-miterlimit="10" fill="none"/><path d="M131.844 159.996l-24.696 16.03 6.977 7.486zm0 0"/><path d="M110.637 179.77l1.765 14.39" stroke-width="1.2" stroke="#000" stroke-miterlimit="10" fill="none"/><path d="M112.402 194.16l1.766 14.387" stroke-width="1.2" stroke="#f00" stroke-miterlimit="10" fill="none"/><path d="M131.844 159.996l28.777-3.53" stroke-width="1.2" stroke="#000" stroke-miterlimit="10" fill="none"/><path d="M119.594 133.72l6.125 13.135" stroke-width="1.2" stroke="#00f" stroke-miterlimit="10" fill="none"/><path d="M125.72 146.855l6.124 13.14M160.62 156.465l5.536-28.46" stroke-width="1.2" stroke="#000" stroke-miterlimit="10" fill="none"/><path d="M160.62 156.465l18.525 22.887 6.714-7.723zm0 0M166.156 128.004l29.082-4.598-3.332-9.676zm0 0"/><path d="M166.156 128.004l-25.355-14.06M193.574 118.566l21.88 19.024M215.453 137.59l-5.535 28.465M221.598 141.742l-4.43 22.766M242.87 128.156l-27.417 9.434M209.918 166.055l-27.414 9.433M231.8 185.078l-21.882-19.023M182.504 175.488l3.53 28.782M189.63 177.54l2.823 23.02M186.035 204.27l14.23 2.765" stroke-width="1.2" stroke="#000" stroke-miterlimit="10" fill="none"/><path d="M200.266 207.035l14.23 2.77M214.496 209.805l8.652-12.364" stroke-width="1.2" stroke="#00f" stroke-miterlimit="10" fill="none"/><path d="M223.148 197.44l8.653-12.362" stroke-width="1.2" stroke="#000" stroke-miterlimit="10" fill="none"/><path d="M205.496 202.805h18v14h-18zm0 0" fill="#fff"/><g fill="#00f"><use xlink:href="#b" x="205.496" y="213.943"/><use xlink:href="#c" x="214.473" y="213.943"/></g><path d="M231.8 185.078l27.415-9.437M232.32 177.684l21.934-7.55M259.215 175.64l5.535-28.46M264.75 147.18l-21.88-19.024M258.086 150.426l-17.504-15.22M140.8 113.945l-10.605 9.887" stroke-width="1.2" stroke="#000" stroke-miterlimit="10" fill="none"/><path d="M130.195 123.832l-10.6 9.887" stroke-width="1.2" stroke="#00f" stroke-miterlimit="10" fill="none"/><path d="M140.8 113.945l16.634-23.75M140.8 113.945L118.92 94.922" stroke-width="1.2" stroke="#000" stroke-miterlimit="10" fill="none"/><path d="M119.594 133.72l-14.39 1.764" stroke-width="1.2" stroke="#00f" stroke-miterlimit="10" fill="none"/><path d="M105.203 135.484l-14.39 1.766" stroke-width="1.2" stroke="#000" stroke-miterlimit="10" fill="none"/><path d="M115.594 126.72h9v14h-9zm0 0" fill="#fff"/><use xlink:href="#b" x="115.594" y="137.857" fill="#00f"/><path d="M93.31 134.922L83.42 124.32" stroke-width="1.2" stroke="#000" stroke-miterlimit="10" fill="none"/><path d="M83.422 124.32l-9.887-10.605" stroke-width="1.2" stroke="#f00" stroke-miterlimit="10" fill="none"/><path d="M88.32 139.574l-9.886-10.6" stroke-width="1.2" stroke="#000" stroke-miterlimit="10" fill="none"/><path d="M78.434 128.973l-9.887-10.606" stroke-width="1.2" stroke="#f00" stroke-miterlimit="10" fill="none"/><path d="M61.043 109.043h10v14h-10zm0 0" fill="#fff"/><use xlink:href="#a" x="61.043" y="120.182" fill="#f00"/><path d="M105.168 201.547h19v14h-19zm0 0" fill="#fff"/><g fill="#f00"><use xlink:href="#a" x="105.168" y="212.686"/><use xlink:href="#c" x="114.613" y="212.686"/></g></g></svg>
